X:28
T:The Mist on the Meadow
R:jig
O:Ireland
M:6/8
L:1/8
K:G
d |: gdB BAB | GBA GBd | gdB BAB | GBd e2 d | 
     gdB BAB | GBA GBd | gfe fdB | ABd e2 f :|
     gfg bag | fef afd | gfg bag | fed e2 f |
     gfg bag | fef afd | gfe fdB | ABd e2 f :|
